X:1096
T:Dionne Reel, The
T:Cinq Jumelles, Les
R:reel
D:Buttons and Bows
O:Quebec
Z:id:hn-reel-1096
M:C|
L:1/8
K:D
Adfd gdfd | Adfd ed (3BcB | Adfd gdfd |1 efec d2 (3BcB :|2 efec defg ||
|: afbf afde | fded Bcdf | afbf afde |1 fdec defg :|2 fdec d2 (3BcB ||
|: Adfd gdfd | Adfd ed (3BcB | Adfd gdfd |1 efec d2 (3BcB :|2 efec defg ||
|: afbf afde | fded Bcdf | afbf afde |1 fdec defg :|2 fdec d2 ||
A2 |: B2AG BGAG | BGAG EFGA | B2AG BGAG |1 EGFA G2GA :|2 EGFA G2AG ||
F2Ad fdAF | G2Bd g3B | Acef gece | defg afdA |
F2Ad fdAF | G2Bd g3B | Acef gece | dfec dcBA |
F2Ad fdAF | G2Bd g3B | Acef gece | (3ded (3cdc (3BcB AG |
F2Ad fdAF | G2Bd g3B | Acef gece | dfec defg ||
|: a2fd adfa | g2e=c gceg | a2fd adfa |1 gece defg :|2 gece d2 (3BcB ||

